src/assets/icons/numbers,fancy,05.svg

<svg width="48" height="48" viewBox="0 0 48 48" fill="none" xmlns="http://www.w3.org/2000/svg">
<path d="M24.0923 39.3977C30.5696 39.3977 34.973 35.179 34.9588 29.2983C34.973 23.7301 31.081 19.7244 25.8395 19.7244C23.2827 19.7244 21.081 20.7898 20.0582 22.2244H19.8878L20.6406 14.9375H33.3537V9.90909H15.5696L14.1918 25.25L19.6605 26.2301C20.5554 25.0227 22.2884 24.2699 24.0071 24.2699C26.9332 24.2841 29.0355 26.4006 29.0355 29.4545C29.0355 32.4801 26.9759 34.5682 24.0923 34.5682C21.6491 34.5682 19.6747 33.0341 19.5327 30.7756H13.5668C13.6804 35.804 18.0696 39.3977 24.0923 39.3977Z" fill="black"/>
</svg>

<svg xmlns="http://www.w3.org/2000/svg" width="48" height="48" fill="none" viewBox="0 0 48 48">
  <path fill="#000" d="M24.092 39.398c6.478 0 10.881-4.219 10.867-10.1.014-5.568-3.878-9.574-9.12-9.574-2.556 0-4.758 1.066-5.78 2.5h-.171l.753-7.287h12.713V9.91H15.57L14.192 25.25l5.468.98c.895-1.207 2.628-1.96 4.347-1.96 2.926.014 5.028 2.13 5.028 5.184 0 3.026-2.06 5.114-4.943 5.114-2.443 0-4.417-1.534-4.56-3.792h-5.965c.113 5.028 4.503 8.622 10.525 8.622z"/>
</svg>
